X: 1
T: Brighton Camp
T: Girl I Left Behind Me, The
C: Trad
R: Polka
M: 2/4
L: 1/8
K: G
Z: ABC transcription by Verge Roller
r: 32
|: g/f/ | "G" ed "Bm" BA | "Em" BG "C" E>F | "G" GG G/A/B/c/ | "G" d2 B g/f/ |
"G" ed "Bm" BA | "Em" BG "C" E>G | "D" F/G/A DE/F/ | "G" G2 G :|
|: d/c/ | "G" Bd "C" ef | "G" gd "D" B/A/G | "G" Bd "C" ef | "Am7" g a/g/ "D" f g/f/
"G" ed "Bm" BA | "Em" BG "C" E>G | "D" F/G/A DE/F/ | "G" G2 G :|
